X:1
T:Geordie
M:2/4
L:1/8
K:A
 A| A2 A G-| G2 GG| F2F-E| C4-| C4| z AA B| c c3|G-A B2| z AA B| c3 c|\
 B2 GF| E4-| E4| z2 FF| E C3-| C2 CB,| C4| F4-| F3||
